assets/img/logo.svg

<svg width="250" height="30" viewBox="0 0 250 30" fill="none" xmlns="http://www.w3.org/2000/svg">
<g clip-path="url(#clip0_6_29)">
<path d="M130.685 1.47217H137.69C138.909 1.47217 140.025 1.70059 140.812 2.03054C141.599 2.36049 142.259 2.81735 142.716 3.37572C143.173 3.9341 143.503 4.49247 143.706 5.15237C143.909 5.81227 144.036 6.49755 144.036 7.05592C144.036 7.71582 143.934 8.2742 143.706 8.95948C143.477 9.64476 143.147 10.1778 142.716 10.7361C142.259 11.2945 141.599 11.726 140.812 12.0813C140.025 12.4113 138.909 12.6397 137.69 12.6397H133.452V21.3199H130.787V1.47217H130.685ZM133.35 10.1524H136.904C137.462 10.1524 137.893 10.1524 138.452 10.0508C139.01 9.94932 139.442 9.82242 139.797 9.59399C140.127 9.36557 140.457 9.03562 140.787 8.60415C141.015 8.14729 141.117 7.6143 141.117 6.92902C141.117 6.24374 141.015 5.71074 140.787 5.25389C140.558 4.79704 140.228 4.46709 139.797 4.26405C139.34 4.03562 138.909 3.9341 138.452 3.80719C137.893 3.70567 137.462 3.70567 136.904 3.70567H133.35V10.1524Z" fill="#D73333"/>
<path d="M145.152 0.126953H147.716V10.0508H147.817C148.147 9.39091 148.706 8.70563 149.492 8.37568C150.279 7.91883 151.168 7.71579 152.157 7.71579C152.817 7.71579 153.376 7.81731 153.934 8.04573C154.492 8.27416 155.051 8.50259 155.482 8.93406C155.939 9.39091 156.269 9.82239 156.472 10.4823C156.7 11.1422 156.929 11.929 156.929 12.8173V21.396H154.365V13.6041C154.365 12.9442 154.264 12.4874 154.137 12.0559C153.909 11.599 153.68 11.2691 153.477 10.9391C153.147 10.7107 152.919 10.4823 152.487 10.3808C152.157 10.2792 151.701 10.1523 151.371 10.1523C150.812 10.1523 150.381 10.2539 149.924 10.3808C149.467 10.6092 149.036 10.8376 148.706 11.1676C148.376 11.4975 148.147 11.9544 147.919 12.5127C147.69 13.0711 147.589 13.731 147.589 14.5178V21.3198H145.025V0.126953H145.152Z" fill="#D73333"/>
<path d="M158.959 3.24877C158.959 2.69039 159.188 2.36044 159.518 1.90359C159.848 1.44674 160.305 1.34521 160.863 1.34521C161.421 1.34521 161.751 1.57364 162.208 1.90359C162.665 2.23354 162.767 2.69039 162.767 3.24877C162.767 3.80714 162.538 4.13709 162.208 4.59394C161.878 5.0508 161.32 5.0508 160.863 5.0508C160.305 5.0508 159.975 4.82237 159.518 4.49242C159.086 4.13709 158.959 3.68024 158.959 3.24877ZM159.518 8.02034H162.081V21.2691H159.518V8.02034Z" fill="#D73333"/>
<path d="M164.873 0.126953H167.437V21.2945H164.873V0.126953Z" fill="#D73333"/>
<path d="M169.67 3.24877C169.67 2.69039 169.898 2.36044 170.228 1.90359C170.558 1.44674 171.015 1.34521 171.574 1.34521C172.132 1.34521 172.462 1.57364 172.919 1.90359C173.376 2.23354 173.477 2.69039 173.477 3.24877C173.477 3.80714 173.249 4.13709 172.919 4.59394C172.589 5.0508 172.03 5.0508 171.472 5.0508C170.914 5.0508 170.584 4.82237 170.127 4.49242C169.67 4.13709 169.67 3.68024 169.67 3.24877ZM170.228 8.02034H172.792V21.2691H170.228V8.02034Z" fill="#D73333"/>
<path d="M175.33 8.02038H177.893V9.92393H177.995C178.452 9.26403 179.112 8.70566 180 8.2488C180.888 7.79195 181.675 7.69043 182.665 7.69043C183.655 7.69043 184.67 7.91886 185.457 8.2488C186.244 8.57875 187.005 9.13713 187.563 9.6955C188.122 10.3554 188.553 11.0407 188.909 11.929C189.239 12.8173 189.365 13.7057 189.365 14.7209C189.365 15.7361 189.264 16.6244 188.909 17.5128C188.579 18.4011 188.122 19.061 187.563 19.7463C187.005 20.4062 186.218 20.863 185.457 21.193C184.67 21.5229 183.68 21.7513 182.665 21.7513C181.675 21.7513 180.761 21.5229 180 21.193C179.213 20.863 178.553 20.2031 178.096 19.5178H177.995V29.3148H175.431V8.04576H175.33V8.02038ZM182.259 10.0255C181.599 10.0255 181.041 10.127 180.482 10.3554C179.924 10.5838 179.492 10.9138 179.137 11.3453C178.807 11.8021 178.477 12.2336 178.249 12.792C178.02 13.3503 177.919 14.0102 177.919 14.6955C177.919 15.3554 178.02 16.0407 178.249 16.5991C178.477 17.1574 178.706 17.5889 179.137 18.0458C179.467 18.5026 179.924 18.7057 180.482 19.0356C181.041 19.264 181.599 19.3656 182.259 19.3656C182.919 19.3656 183.477 19.264 184.036 19.0356C184.594 18.8072 185.025 18.4772 185.381 18.0458C185.711 17.5889 186.041 17.1574 186.269 16.5991C186.497 16.0407 186.599 15.3808 186.599 14.6955C186.599 14.0356 186.497 13.3503 186.269 12.792C186.041 12.2336 185.812 11.8021 185.381 11.3453C185.051 10.8884 184.594 10.6854 184.036 10.3554C183.477 10.1524 182.919 10.0255 182.259 10.0255Z" fill="#D73333"/>
<path d="M191.041 8.02038H193.604V9.92393H193.706C194.162 9.26403 194.822 8.70566 195.711 8.2488C196.599 7.79195 197.386 7.69043 198.376 7.69043C199.365 7.69043 200.381 7.91886 201.167 8.2488C201.954 8.57875 202.716 9.13713 203.274 9.6955C203.832 10.3554 204.264 11.0407 204.619 11.929C204.949 12.8173 205.076 13.7057 205.076 14.7209C205.076 15.7361 204.975 16.6244 204.619 17.5128C204.289 18.4011 203.832 19.061 203.274 19.7463C202.716 20.4062 201.929 20.863 201.167 21.193C200.381 21.5229 199.391 21.7513 198.376 21.7513C197.386 21.7513 196.472 21.5229 195.711 21.193C194.924 20.863 194.264 20.2031 193.807 19.5178H193.706V29.3148H191.142V8.04576H191.041V8.02038ZM197.944 10.0255C197.284 10.0255 196.726 10.127 196.168 10.3554C195.609 10.5838 195.178 10.9138 194.822 11.3453C194.492 11.8021 194.162 12.2336 193.934 12.792C193.706 13.3503 193.604 14.0102 193.604 14.6955C193.604 15.3554 193.706 16.0407 193.934 16.5991C194.162 17.1574 194.391 17.5889 194.822 18.0458C195.152 18.5026 195.609 18.7057 196.168 19.0356C196.726 19.264 197.284 19.3656 197.944 19.3656C198.604 19.3656 199.162 19.264 199.721 19.0356C200.279 18.8072 200.711 18.4772 201.066 18.0458C201.396 17.5889 201.726 17.1574 201.954 16.5991C202.183 16.0407 202.284 15.3808 202.284 14.6955C202.284 14.0356 202.183 13.3503 201.954 12.792C201.726 12.2336 201.497 11.8021 201.066 11.3453C200.736 10.8884 200.279 10.6854 199.721 10.3554C199.289 10.1524 198.629 10.0255 197.944 10.0255Z" fill="#D73333"/>
<path d="M206.421 3.24877C206.421 2.69039 206.65 2.36044 206.98 1.90359C207.31 1.44674 207.767 1.34521 208.325 1.34521C208.883 1.34521 209.213 1.57364 209.67 1.90359C210.127 2.23354 210.228 2.69039 210.228 3.24877C210.228 3.80714 210 4.13709 209.67 4.59394C209.34 5.0508 208.782 5.0508 208.223 5.0508C207.665 5.0508 207.335 4.82237 206.878 4.49242C206.421 4.13709 206.421 3.68024 206.421 3.24877ZM206.98 8.02034H209.543V21.2691H206.98V8.02034Z" fill="#D73333"/>
<path d="M212.107 8.02038H214.67V10.0255H214.772C215.102 9.36556 215.66 8.68028 216.447 8.35033C217.234 7.89347 218.122 7.69043 219.112 7.69043C219.772 7.69043 220.33 7.79195 220.888 8.02038C221.447 8.2488 222.005 8.47723 222.437 8.9087C222.893 9.36556 223.223 9.79703 223.426 10.4569C223.655 11.1168 223.883 11.9036 223.883 12.792V21.3706H221.32V13.5788C221.32 12.9189 221.218 12.462 221.091 12.0305C220.863 11.5737 220.635 11.2437 220.432 10.9138C220.102 10.6854 219.873 10.4569 219.442 10.3554C219.112 10.2539 218.655 10.127 218.325 10.127C217.767 10.127 217.335 10.2285 216.878 10.3554C216.421 10.5838 215.99 10.8123 215.66 11.1422C215.33 11.4722 215.102 11.929 214.873 12.4874C214.645 13.0458 214.543 13.7057 214.543 14.4925V21.2945H211.98V8.04576H212.107V8.02038Z" fill="#D73333"/>
<path d="M228.249 15.6092C228.249 16.1675 228.35 16.7259 228.579 17.1574C228.807 17.6142 229.137 18.0457 229.569 18.3756C230.025 18.7056 230.457 18.934 231.015 19.1625C231.574 19.3909 232.132 19.4924 232.69 19.4924C233.477 19.4924 234.137 19.264 234.695 18.934C235.254 18.6041 235.812 18.0457 236.244 17.4873L238.147 18.934C236.7 20.7107 234.797 21.599 232.233 21.599C231.244 21.599 230.228 21.3706 229.34 21.0406C228.452 20.7107 227.792 20.1523 227.233 19.5939C226.675 18.934 226.244 18.2487 225.888 17.3604C225.558 16.4721 225.431 15.5838 225.431 14.5685C225.431 13.5533 225.66 12.665 225.99 11.7767C226.32 10.8883 226.777 10.2284 227.437 9.54316C227.995 8.88326 228.782 8.42641 229.543 8.09646C230.431 7.76651 231.32 7.53809 232.335 7.53809C233.553 7.53809 234.569 7.76651 235.33 8.19799C236.117 8.65484 236.777 9.18783 237.335 9.74621C237.893 10.4061 238.223 11.1929 238.452 11.9797C238.68 12.7665 238.782 13.6548 238.782 14.5432V15.4315H228.198V15.6092H228.249ZM236.167 13.5026C236.167 12.9442 236.066 12.3858 235.939 11.9543C235.838 11.4975 235.482 11.066 235.279 10.7361C234.949 10.4061 234.619 10.0762 234.061 9.94925C233.503 9.82235 233.071 9.61931 232.386 9.61931C231.7 9.61931 231.167 9.72083 230.711 9.94925C230.152 10.1777 229.721 10.5076 229.365 10.8376C229.036 11.1675 228.706 11.6244 228.579 12.0559C228.35 12.5127 228.249 12.9442 228.249 13.401H236.167V13.5026V13.5026Z" fill="#D73333"/>
<path d="M247.513 11.3706C247.183 11.0406 246.853 10.7107 246.396 10.4823C245.939 10.2538 245.406 10.1523 244.848 10.1523C244.289 10.1523 243.731 10.2538 243.299 10.4823C242.868 10.7107 242.64 11.1422 242.64 11.599C242.64 12.0559 242.741 12.2589 242.97 12.5889C243.198 12.9188 243.528 13.0457 243.858 13.1472C244.188 13.2488 244.518 13.3757 244.975 13.4772C245.431 13.5787 245.761 13.5787 245.964 13.7056C246.523 13.8071 246.954 14.0356 247.513 14.1625C247.97 14.3909 248.401 14.6193 248.731 14.9493C249.061 15.2792 249.391 15.6092 249.518 16.066C249.746 16.5229 249.848 17.0559 249.848 17.6142C249.848 18.401 249.746 18.9594 249.391 19.5178C249.061 20.0762 248.604 20.5076 248.173 20.863C247.614 21.1929 247.056 21.4213 246.497 21.6498C245.838 21.7513 245.152 21.8782 244.594 21.8782C243.477 21.8782 242.487 21.6498 241.7 21.3198C240.914 20.9899 240.152 20.33 239.467 19.4163L241.371 17.868C241.827 18.3249 242.259 18.6548 242.716 18.9848C243.173 19.3147 243.832 19.4416 244.619 19.4416C244.949 19.4416 245.279 19.4416 245.609 19.3401C245.939 19.2386 246.269 19.1117 246.497 19.0102C246.726 18.9086 246.954 18.6802 247.157 18.4518C247.259 18.2234 247.386 17.9949 247.386 17.665C247.386 17.335 247.284 17.0051 247.056 16.7767C246.827 16.5482 246.497 16.3198 246.168 16.2183C245.838 16.1168 245.508 15.9899 245.178 15.8883C244.848 15.7868 244.518 15.7868 244.188 15.6599C243.629 15.5584 243.198 15.33 242.64 15.2031C242.183 14.9746 241.751 14.7462 241.294 14.5432C240.964 14.2132 240.634 13.8833 240.406 13.4264C240.178 12.9696 240.076 12.4366 240.076 11.8782C240.076 11.2183 240.178 10.533 240.533 10.1015C240.863 9.54317 241.193 9.21322 241.65 8.88327C242.107 8.55332 242.64 8.3249 243.325 8.09647C243.883 7.86804 244.543 7.86804 245.102 7.86804C245.99 7.86804 246.878 8.09647 247.665 8.42642C248.452 8.75637 249.112 9.31474 249.67 10.1015L247.513 11.3706Z" fill="#D73333"/>
<path d="M37.8934 12.2589C37.8934 12.2589 38.8833 13.7056 38.8833 16.269C38.8833 18.731 36.8782 20.736 34.4163 20.736H0.0253906L26.3198 1.34518L23.5279 2.46193C18.9594 2.46193 10.7107 2.36041 5.15229 6.70051C5.15229 6.70051 4.69544 5.91371 4.69544 4.79696C4.69544 2.33503 6.70052 0.329956 9.16245 0.329956H39.467L13.2741 19.8477L16.066 18.731C24.5178 18.731 33.3249 17.8426 37.8934 12.2589Z" fill="#D73333"/>
<path d="M126.777 10.7107L123.985 20.736H117.31L119.975 11.0406C120.305 9.82233 119.645 9.03553 118.198 9.03553C116.751 9.03553 115.635 9.92385 115.305 11.0406L112.64 20.736H105.964L108.629 11.0406C108.959 9.82233 108.299 9.03553 106.853 9.03553C105.406 9.03553 104.289 9.92385 103.959 11.0406L101.396 20.736H94.7208L97.5127 10.7107C98.731 6.04061 103.858 4.36548 107.081 4.36548C109.645 4.36548 111.751 4.92386 113.426 5.9137C115.66 4.92386 118.096 4.36548 120.66 4.36548C123.985 4.36548 128.223 5.9137 126.777 10.7107Z" fill="#D73333"/>
<path d="M43.6802 21.066C45.5305 21.066 47.0305 19.566 47.0305 17.7157C47.0305 15.8654 45.5305 14.3655 43.6802 14.3655C41.8299 14.3655 40.33 15.8654 40.33 17.7157C40.33 19.566 41.8299 21.066 43.6802 21.066Z" fill="#D73333"/>
<path d="M96.269 12.7158C95.0508 17.2843 88.5787 21.066 82.0051 21.066C75.4315 21.066 71.0914 17.2843 72.3096 12.7158C73.5279 8.14726 80 4.36553 86.5736 4.36553C93.1472 4.23863 97.4873 8.02035 96.269 12.7158Z" fill="#D73333"/>
<path d="M85.3553 8.80713C82.3604 8.80713 79.4416 10.4823 78.8832 12.5889C78.3249 14.6955 80.2284 16.3706 83.2233 16.3706C86.2183 16.3706 89.1371 14.6955 89.6954 12.5889C90.3553 10.5838 88.3503 8.80713 85.3553 8.80713Z" fill="white"/>
<path d="M64.2893 14.3909C63.0711 15.6091 60.9391 16.4975 58.8325 16.4975C55.8376 16.4975 53.8325 14.8223 54.4924 12.7157C55.0508 10.6091 57.9442 8.93401 60.9645 8.93401C62.9695 8.93401 64.5178 9.72081 65.0761 10.8376H71.9797C71.7513 7.15736 67.7411 4.36548 62.1827 4.36548C55.6091 4.36548 49.1624 8.14721 47.9188 12.7157C46.6751 17.2843 50.9391 21.066 57.6142 21.066C63.401 21.066 68.9848 18.1726 71.1929 14.3909H64.2893Z" fill="#D73333"/>
</g>
<defs>
<clipPath id="clip0_6_29">
<rect width="250" height="29.4416" fill="white"/>
</clipPath>
</defs>
</svg>

<svg xmlns="http://www.w3.org/2000/svg" width="250" height="30" fill="none" xmlns:v="https://vecta.io/nano"><g clip-path="url(#A)"><g fill="#d73333"><path d="M130.685 1.472h7.005c1.219 0 2.335.228 3.122.558s1.447.787 1.904 1.345.787 1.117.99 1.777.33 1.345.33 1.904c0 .66-.102 1.218-.33 1.904s-.559 1.218-.99 1.777c-.457.558-1.117.99-1.904 1.345-.787.33-1.903.558-3.122.558h-4.238v8.68h-2.665V1.472h-.102zm2.665 8.68h3.554c.558 0 .989 0 1.548-.102s.99-.228 1.345-.457c.33-.228.66-.558.99-.99.228-.457.33-.99.33-1.675s-.102-1.218-.33-1.675-.559-.787-.99-.99c-.457-.228-.888-.33-1.345-.457-.559-.102-.99-.102-1.548-.102h-3.554v6.447zM145.152.127h2.564v9.924h.101c.33-.66.889-1.345 1.675-1.675.787-.457 1.676-.66 2.665-.66a4.52 4.52 0 0 1 1.777.33c.558.228 1.117.457 1.548.888.457.457.787.888.99 1.548.228.66.457 1.447.457 2.335v8.579h-2.564v-7.792a5.11 5.11 0 0 0-.228-1.548c-.228-.457-.457-.787-.66-1.117-.33-.228-.558-.457-.99-.558-.33-.102-.786-.229-1.116-.229-.559 0-.99.102-1.447.229-.457.228-.888.457-1.218.787s-.559.787-.787 1.345-.33 1.218-.33 2.005v6.802h-2.564V.127h.127zm13.807 3.122c0-.558.229-.888.559-1.345s.787-.558 1.345-.558.888.228 1.345.558.559.787.559 1.345-.229.888-.559 1.345-.888.457-1.345.457c-.558 0-.888-.228-1.345-.558-.432-.355-.559-.812-.559-1.244zm.559 4.772h2.563V21.27h-2.563V8.02zm5.355-7.894h2.564v21.168h-2.564V.127zm4.797 3.122c0-.558.228-.888.558-1.345s.787-.558 1.346-.558.888.228 1.345.558.558.787.558 1.345-.228.888-.558 1.345-.889.457-1.447.457-.888-.228-1.345-.558c-.457-.355-.457-.812-.457-1.244zm.558 4.772h2.564V21.27h-2.564V8.02zm5.102-.001h2.563v1.904h.102c.457-.66 1.117-1.218 2.005-1.675s1.675-.558 2.665-.558 2.005.228 2.792.558 1.548.888 2.106 1.447a7.82 7.82 0 0 1 1.346 2.234c.33.888.456 1.777.456 2.792s-.101 1.904-.456 2.792c-.33.888-.787 1.548-1.346 2.234-.558.66-1.345 1.117-2.106 1.447-.787.33-1.777.558-2.792.558a6.74 6.74 0 0 1-2.665-.558c-.787-.33-1.447-.99-1.904-1.675h-.101v9.797h-2.564V8.046h-.101V8.02zm6.929 2.005a4.53 4.53 0 0 0-1.777.33 3.31 3.31 0 0 0-1.345.99c-.33.457-.66.888-.888 1.447s-.33 1.218-.33 1.903c0 .66.101 1.345.33 1.904s.457.99.888 1.447c.33.457.787.66 1.345.99a4.53 4.53 0 0 0 1.777.33 4.53 4.53 0 0 0 1.777-.33 3.32 3.32 0 0 0 1.345-.99c.33-.457.66-.888.888-1.447s.33-1.218.33-1.904c0-.66-.102-1.345-.33-1.903s-.457-.99-.888-1.447c-.33-.457-.787-.66-1.345-.99-.559-.203-1.117-.33-1.777-.33zm8.782-2.005h2.563v1.904h.102c.456-.66 1.116-1.218 2.005-1.675s1.675-.558 2.665-.558a7.49 7.49 0 0 1 2.791.558c.787.33 1.549.888 2.107 1.447a7.81 7.81 0 0 1 1.345 2.234c.33.888.457 1.777.457 2.792s-.101 1.904-.457 2.792c-.33.888-.787 1.548-1.345 2.234-.558.66-1.345 1.117-2.107 1.447-.786.33-1.776.558-2.791.558a6.74 6.74 0 0 1-2.665-.558c-.787-.33-1.447-.99-1.904-1.675h-.101v9.797h-2.564V8.046h-.101V8.02zm6.903 2.005c-.66 0-1.218.102-1.776.33a3.33 3.33 0 0 0-1.346.99c-.33.457-.66.888-.888 1.447s-.33 1.218-.33 1.903c0 .66.102 1.345.33 1.904s.457.99.888 1.447c.33.457.787.66 1.346.99.558.228 1.116.33 1.776.33a4.53 4.53 0 0 0 1.777-.33 3.31 3.31 0 0 0 1.345-.99c.33-.457.66-.888.888-1.447s.33-1.218.33-1.904c0-.66-.101-1.345-.33-1.903s-.457-.99-.888-1.447c-.33-.457-.787-.66-1.345-.99-.432-.203-1.092-.33-1.777-.33zm8.477-6.776c0-.558.229-.888.559-1.345s.787-.558 1.345-.558.888.228 1.345.558.558.787.558 1.345-.228.888-.558 1.345-.888.457-1.447.457-.888-.228-1.345-.558c-.457-.355-.457-.812-.457-1.244zm.559 4.772h2.563V21.27h-2.563V8.02zm5.127-.001h2.563v2.005h.102c.33-.66.888-1.345 1.675-1.675.787-.457 1.675-.66 2.665-.66.66 0 1.218.102 1.776.33s1.117.457 1.549.888c.456.457.786.888.989 1.548.229.66.457 1.447.457 2.335v8.579h-2.563v-7.792c0-.66-.102-1.117-.229-1.548-.228-.457-.456-.787-.659-1.117-.33-.228-.559-.457-.99-.558-.33-.101-.787-.228-1.117-.228-.558 0-.99.101-1.447.228-.457.228-.888.457-1.218.787s-.558.787-.787 1.345-.33 1.218-.33 2.005v6.802h-2.563V8.046h.127V8.02zm16.142 7.589c0 .558.101 1.117.33 1.548a3.49 3.49 0 0 0 .99 1.218c.456.33.888.558 1.446.787a4.38 4.38 0 0 0 1.675.33 3.87 3.87 0 0 0 2.005-.558c.559-.33 1.117-.888 1.549-1.447l1.903 1.447c-1.447 1.777-3.35 2.665-5.914 2.665-.989 0-2.005-.228-2.893-.558s-1.548-.888-2.107-1.447a7.84 7.84 0 0 1-1.345-2.234c-.33-.888-.457-1.777-.457-2.792s.229-1.904.559-2.792.787-1.548 1.447-2.234c.558-.66 1.345-1.117 2.106-1.447.888-.33 1.777-.558 2.792-.558 1.218 0 2.234.228 2.995.66.787.457 1.447.99 2.005 1.548.558.66.888 1.447 1.117 2.233s.33 1.675.33 2.564v.888h-10.584v.178h.051zm7.918-2.107c0-.558-.101-1.117-.228-1.548-.101-.457-.457-.888-.66-1.218-.33-.33-.66-.66-1.218-.787s-.99-.33-1.675-.33-1.219.102-1.675.33c-.559.228-.99.558-1.346.888-.329.33-.659.787-.786 1.218-.229.457-.33.888-.33 1.345h7.918v.102h0zm11.346-2.131c-.33-.33-.66-.66-1.117-.888s-.99-.33-1.548-.33-1.117.101-1.549.33a1.24 1.24 0 0 0-.659 1.117c0 .457.101.66.33.99s.558.457.888.558l1.117.33c.456.101.786.101.989.228.559.101.99.33 1.549.457.457.228.888.457 1.218.787s.66.66.787 1.117c.228.457.33.99.33 1.548 0 .787-.102 1.345-.457 1.904-.33.558-.787.99-1.218 1.345-.559.33-1.117.558-1.676.787l-1.903.228c-1.117 0-2.107-.228-2.894-.558s-1.548-.99-2.233-1.904l1.904-1.548c.456.457.888.787 1.345 1.117s1.116.457 1.903.457c.33 0 .66 0 .99-.102a8.38 8.38 0 0 0 .888-.33c.229-.102.457-.33.66-.558.102-.228.229-.457.229-.787s-.102-.66-.33-.888-.559-.457-.888-.558l-.99-.33c-.33-.101-.66-.101-.99-.228-.559-.101-.99-.33-1.548-.457l-1.346-.66c-.33-.33-.66-.66-.888-1.117s-.33-.99-.33-1.548c0-.66.102-1.345.457-1.777.33-.558.66-.888 1.117-1.218s.99-.558 1.675-.787c.558-.228 1.218-.228 1.777-.228.888 0 1.776.228 2.563.558s1.447.888 2.005 1.675l-2.157 1.269zm-209.62.888s.99 1.447.99 4.01c0 2.462-2.005 4.467-4.467 4.467H.025L26.32 1.345l-2.792 1.117c-4.568 0-12.817-.102-18.376 4.239 0 0-.457-.787-.457-1.904C4.695 2.335 6.701.33 9.162.33h30.305L13.274 19.848l2.792-1.117c8.452 0 17.259-.888 21.827-6.472zm88.884-1.548l-2.792 10.025h-6.675l2.665-9.695c.33-1.218-.33-2.005-1.777-2.005s-2.563.888-2.893 2.005l-2.665 9.695h-6.676l2.665-9.695c.33-1.218-.33-2.005-1.776-2.005s-2.564.888-2.894 2.005l-2.563 9.695h-6.675l2.792-10.025c1.218-4.67 6.345-6.345 9.568-6.345 2.564 0 4.67.558 6.345 1.548 2.234-.99 4.67-1.548 7.234-1.548 3.325 0 7.563 1.548 6.117 6.345zM43.68 21.066a3.35 3.35 0 1 0 0-6.7 3.35 3.35 0 1 0 0 6.7zm52.589-8.35c-1.218 4.569-7.69 8.35-14.264 8.35s-10.914-3.782-9.695-8.35 7.69-8.35 14.264-8.35c6.574-.127 10.914 3.655 9.695 8.35z"/></g><path d="M85.355 8.807c-2.995 0-5.914 1.675-6.472 3.782s1.345 3.782 4.34 3.782 5.914-1.675 6.472-3.782c.66-2.005-1.345-3.782-4.34-3.782z" fill="#fff"/><path d="M64.289 14.391c-1.218 1.218-3.35 2.107-5.457 2.107-2.995 0-5-1.675-4.34-3.782.558-2.107 3.452-3.782 6.472-3.782 2.005 0 3.553.787 4.112 1.904h6.904c-.228-3.68-4.239-6.472-9.797-6.472-6.574 0-13.02 3.782-14.264 8.35s3.02 8.35 9.695 8.35c5.787 0 11.371-2.893 13.579-6.675h-6.904z" fill="#d73333"/></g><defs><clipPath id="A"><path fill="#fff" d="M0 0h250v29.442H0z"/></clipPath></defs></svg>
